; generated by PrusaSlicer 2.3.0-rc2+linux-x64 on 2021-05-31 at 09:46:52 UTC

; 

; external perimeters extrusion width = 0.56mm
; perimeters extrusion width = 0.56mm
; infill extrusion width = 0.56mm
; solid infill extrusion width = 0.56mm
; top infill extrusion width = 0.50mm
; support material extrusion width = 0.50mm

M201 X1000 Y1000 Z500 E1000 ; sets maximum accelerations, mm/sec^2
M203 X500 Y500 Z12 E120 ; sets maximum feedrates, mm/sec
M204 P1000 R1000 T1000 ; sets acceleration (P, T) and retract acceleration (R), mm/sec^2
M205 X10.00 Y10.00 Z0.20 E2.50 ; sets the jerk limits, mm/sec
M205 S0 T0 ; sets the minimum extruding and travel feed rate, mm/sec
M107
;TYPE:Custom
M104 S200 ; set extruder temp
M140 S65 ; set bed temp
M190 S65 ; wait for bed temp
M109 S200 ; wait for extruder temp

M501
M220 S100 ;Reset Feedrate
M221 S100 ;Reset Flowrate

G90;
M82;

G28 X Y ;Home X Y
G28 Z ;Home Z
M420 S1 Z8 ;Enable ABL using saved Mesh and Fade Height

G92 E0 ;Reset Extruder
G1 Z2.0 F3000 ;Move Z Axis up
G1 X10.1 Y20 Z2.0 F5000.0 ;Move to start position
G1 X10.1 Y20 Z0.2 F5000.0 ;Move to start position
G1 X10.1 Y200.0 F1500.0 E15 ;Draw the first line
G1 X10.4 Y200.0 F5000.0 ;Move to side a little
G1 X10.4 Y20 F1500.0 E30 ;Draw the second line

G92 E0 ;Reset Extruder
G1 Z10.0 F3000 ;Move Z Axis up
G4 P3000 ;Dwell
G21 ; set units to millimeters
G90 ; use absolute coordinates
M82 ; use absolute distances for extrusion
G92 E0
; Filament gcode
;LAYER_CHANGE
;Z:0.2
;HEIGHT:0.2
G10 ; retract
G92 E0
G1 Z0.200 F7800.000
G1 X130.530 Y64.013
G11 ; unretract
G92 E0
;TYPE:Skirt
;WIDTH:0.5625
G1 F900.000
G1 X131.406 Y62.665 E0.06948
G1 X132.510 Y61.559 E0.13701
G1 X133.859 Y60.688 E0.20639
G1 X135.079 Y60.195 E0.26323
G1 X136.450 Y59.912 E0.32371
G1 X140.962 Y59.861 E0.51866
G1 X144.842 Y59.886 E0.68629
G1 X145.942 Y60.056 E0.73435
G1 X146.855 Y60.317 E0.77538
G1 X147.903 Y60.795 E0.82516
G1 X149.016 Y61.527 E0.88271
G1 X149.910 Y62.374 E0.93591
G1 X150.655 Y63.355 E0.98912
G1 X151.105 Y64.161 E1.02902
G1 X151.473 Y65.075 E1.07159
G1 X151.698 Y65.924 E1.10951
G1 X151.834 Y66.879 E1.15119
G1 X151.852 Y74.604 E1.48496
G1 X151.787 Y75.443 E1.52130
G1 X151.616 Y76.315 E1.55970
G1 X151.298 Y77.270 E1.60320
G1 X150.926 Y78.066 E1.64112
G1 X150.459 Y78.808 E1.67905
G1 X149.827 Y79.593 E1.72256
G1 X149.174 Y80.217 E1.76160
G1 X148.458 Y80.747 E1.80009
G1 X147.581 Y81.251 E1.84378
G1 X146.702 Y81.612 E1.88481
G1 X145.489 Y81.910 E1.93880
G1 X144.387 Y82.011 E1.98661
G1 X137.067 Y82.008 E2.30282
G1 X135.347 Y81.756 E2.37796
G1 X134.499 Y81.480 E2.41645
G1 X133.694 Y81.100 E2.45493
G1 X132.855 Y80.582 E2.49752
G1 X132.111 Y79.971 E2.53912
G1 X131.465 Y79.283 E2.57989
G1 X130.879 Y78.477 E2.62293
G1 X130.446 Y77.691 E2.66170
G1 X130.088 Y76.794 E2.70342
G1 X129.806 Y75.641 E2.75471
G1 X129.709 Y74.527 E2.80303
G1 X129.712 Y67.210 E3.11914
G1 X129.947 Y65.561 E3.19111
G1 X130.503 Y64.084 E3.25931
G1 X130.991 Y64.272 F7800.000
G1 F900.000
G1 X131.022 Y64.193 E3.26299
G1 X131.855 Y62.936 E3.32814
G1 X132.893 Y61.918 E3.39094
G1 X134.180 Y61.107 E3.45666
G1 X135.295 Y60.673 E3.50837
G1 X136.570 Y60.422 E3.56449
G1 X140.962 Y60.381 E3.75425
G1 X144.771 Y60.402 E3.91883
G1 X145.805 Y60.558 E3.96399
G1 X146.648 Y60.795 E4.00184
G1 X147.641 Y61.244 E4.04893
G1 X148.695 Y61.935 E4.10336
G1 X149.540 Y62.740 E4.15379
G1 X150.243 Y63.675 E4.20431
G1 X150.653 Y64.420 E4.24108
G1 X150.992 Y65.277 E4.28087
G1 X151.195 Y66.058 E4.31574
G1 X151.318 Y66.953 E4.35478
G1 X151.333 Y74.591 E4.68478
G1 X151.268 Y75.400 E4.71984
G1 X151.097 Y76.244 E4.75702
G1 X150.793 Y77.133 E4.79763
G1 X150.443 Y77.867 E4.83276
G1 X149.924 Y78.661 E4.87374
G1 X149.399 Y79.290 E4.90915
G1 X148.788 Y79.863 E4.94534
G1 X148.114 Y80.351 E4.98129
G1 X147.286 Y80.816 E5.02229
G1 X146.449 Y81.149 E5.06123
G1 X145.349 Y81.406 E5.11001
G1 X144.351 Y81.491 E5.15330
G1 X137.081 Y81.489 E5.46737
G1 X135.421 Y81.238 E5.53993
G1 X134.568 Y80.947 E5.57887
G1 X133.740 Y80.530 E5.61891
G1 X133.048 Y80.080 E5.65459
G1 X132.413 Y79.541 E5.69054
G1 X131.823 Y78.900 E5.72819
G1 X131.276 Y78.132 E5.76893
G1 X130.881 Y77.393 E5.80515
G1 X130.552 Y76.539 E5.84467
G1 X130.309 Y75.493 E5.89106
G1 X130.228 Y74.492 E5.93445
G1 X130.232 Y67.224 E6.24848
G1 X130.465 Y65.632 E6.31797
G1 X130.964 Y64.342 E6.37773
G1 X135.575 Y63.915 F7800.000
G1 F900.000
G1 X136.895 Y63.551 E6.43688
G1 X144.440 Y63.532 E6.76283
G1 X145.150 Y63.629 E6.79379
G1 X145.634 Y63.766 E6.81553
G1 X146.886 Y64.516 E6.87860
G1 X147.368 Y65.043 E6.90947
G1 X147.741 Y65.619 E6.93911
G1 X148.019 Y66.296 E6.97071
G1 X148.166 Y66.983 E7.00105
G1 X148.188 Y74.651 E7.33237
G1 X148.083 Y75.349 E7.36285
G1 X147.861 Y76.013 E7.39308
G1 X147.367 Y76.833 E7.43446
G1 X146.744 Y77.476 E7.47314
G1 X145.988 Y77.961 E7.51196
G1 X145.836 Y78.026 E7.51910
G1 X144.474 Y78.349 E7.57955
G1 X137.105 Y78.349 E7.89791
G1 X135.888 Y78.094 E7.95164
G1 X135.468 Y77.899 E7.97167
G1 X134.894 Y77.538 E8.00098
G1 X134.288 Y76.949 E8.03747
G1 X133.806 Y76.228 E8.07493
G1 X133.494 Y75.403 E8.11305
G1 X133.370 Y74.522 E8.15148
G1 X133.378 Y67.183 E8.46854
G1 X133.490 Y66.485 E8.49909
G1 X133.701 Y65.864 E8.52743
G1 X134.195 Y65.043 E8.56884
G1 X134.818 Y64.400 E8.60751
G1 X135.512 Y63.955 E8.64311
G1 X135.789 Y64.394 F7800.000
G1 F900.000
G1 X136.996 Y64.062 E8.69718
G1 X144.387 Y64.049 E9.01653
G1 X145.060 Y64.141 E9.04588
G1 X145.456 Y64.255 E9.06366
G1 X146.581 Y64.938 E9.12054
G1 X146.965 Y65.371 E9.14552
G1 X147.291 Y65.879 E9.17162
G1 X147.517 Y66.431 E9.19738
G1 X147.646 Y67.013 E9.22314
G1 X147.668 Y74.632 E9.55230
G1 X147.573 Y75.246 E9.57914
G1 X147.379 Y75.817 E9.60521
G1 X146.940 Y76.536 E9.64159
G1 X146.396 Y77.090 E9.67512
G1 X145.691 Y77.526 E9.71095
G1 X144.443 Y77.830 E9.76646
G1 X137.132 Y77.830 E10.08231
G1 X136.078 Y77.610 E10.12884
G1 X135.730 Y77.450 E10.14539
G1 X135.195 Y77.113 E10.17269
G1 X134.673 Y76.599 E10.20433
G1 X134.258 Y75.968 E10.23698
G1 X133.992 Y75.250 E10.27005
G1 X133.890 Y74.505 E10.30256
G1 X133.895 Y67.242 E10.61633
G1 X133.990 Y66.630 E10.64310
G1 X134.184 Y66.059 E10.66916
G1 X134.622 Y65.340 E10.70554
G1 X135.166 Y64.786 E10.73907
G1 X135.725 Y64.434 E10.76761
G1 X136.059 Y64.838 F7800.000
G1 F900.000
G1 X137.092 Y64.573 E10.81367
G1 X144.335 Y64.566 E11.12659
G1 X144.970 Y64.653 E11.15429
G1 X145.276 Y64.743 E11.16810
G1 X146.219 Y65.312 E11.21565
G1 X146.561 Y65.699 E11.23799
G1 X146.838 Y66.136 E11.26033
G1 X147.026 Y66.603 E11.28207
G1 X147.133 Y67.095 E11.30384
G1 X147.151 Y74.576 E11.62702
G1 X147.073 Y75.102 E11.64999
G1 X146.897 Y75.621 E11.67369
G1 X146.515 Y76.237 E11.70501
G1 X146.094 Y76.666 E11.73098
G1 X145.505 Y77.037 E11.76106
G1 X144.410 Y77.310 E11.80979
G1 X137.159 Y77.310 E12.12308
G1 X136.265 Y77.124 E12.16251
G1 X135.991 Y77.000 E12.17553
G1 X135.497 Y76.690 E12.20071
G1 X135.061 Y76.253 E12.22737
G1 X134.711 Y75.712 E12.25522
G1 X134.490 Y75.102 E12.28325
G1 X134.410 Y74.489 E12.30998
G1 X134.411 Y67.299 E12.62060
G1 X134.490 Y66.774 E12.64352
G1 X134.666 Y66.255 E12.66721
G1 X135.048 Y65.639 E12.69853
G1 X135.469 Y65.210 E12.72450
G1 X135.995 Y64.878 E12.75138
G1 X136.268 Y65.319 F7800.000
G1 F900.000
G1 X137.183 Y65.085 E12.79219
G1 X144.316 Y65.086 E13.10035
G1 X144.876 Y65.164 E13.12479
G1 X145.094 Y65.231 E13.13464
G1 X145.859 Y65.689 E13.17314
G1 X146.137 Y66.000 E13.19118
G1 X146.366 Y66.354 E13.20940
G1 X146.535 Y66.774 E13.22898
G1 X146.619 Y67.175 E13.24664
G1 X146.632 Y74.556 E13.56553
G1 X146.564 Y74.998 E13.58484
G1 X146.417 Y75.421 E13.60418
G1 X146.092 Y75.933 E13.63039
G1 X145.750 Y76.276 E13.65134
G1 X145.268 Y76.573 E13.67579
G1 X144.380 Y76.791 E13.71530
G1 X137.185 Y76.791 E14.02613
G1 X136.449 Y76.638 E14.05860
G1 X136.251 Y76.550 E14.06799
G1 X135.801 Y76.267 E14.09093
G1 X135.453 Y75.911 E14.11244
G1 X135.166 Y75.460 E14.13553
G1 X134.990 Y74.958 E14.15851
G1 X134.929 Y74.473 E14.17963
G1 X134.931 Y67.320 E14.48869
G1 X134.999 Y66.878 E14.50798
G1 X135.146 Y66.456 E14.52732
G1 X135.470 Y65.943 E14.55353
G1 X135.813 Y65.600 E14.57448
G1 X136.204 Y65.359 E14.59433
G1 X136.527 Y65.769 F7800.000
G1 F900.000
G1 X137.213 Y65.605 E14.62481
G1 X144.297 Y65.605 E14.93085
G1 X144.778 Y65.675 E14.95188
G1 X144.908 Y65.716 E14.95776
G1 X145.502 Y66.068 E14.98756
G1 X145.713 Y66.300 E15.00113
G1 X145.915 Y66.613 E15.01719
G1 X146.042 Y66.940 E15.03236
G1 X146.104 Y67.250 E15.04603
G1 X146.112 Y74.534 E15.36074
G1 X146.055 Y74.889 E15.37628
G1 X145.939 Y75.215 E15.39122
G1 X145.674 Y75.624 E15.41227
G1 X145.410 Y75.881 E15.42818
G1 X145.036 Y76.107 E15.44706
G1 X144.350 Y76.271 E15.47754
G1 X137.212 Y76.271 E15.78593
G1 X136.628 Y76.150 E15.81167
G1 X136.509 Y76.099 E15.81730
G1 X136.107 Y75.846 E15.83781
G1 X135.850 Y75.575 E15.85395
G1 X135.624 Y75.213 E15.87236
G1 X135.492 Y74.821 E15.89027
G1 X135.449 Y74.459 E15.90600
G1 X135.451 Y67.341 E16.21350
G1 X135.508 Y66.987 E16.22903
G1 X135.624 Y66.661 E16.24397
G1 X135.889 Y66.252 E16.26502
G1 X136.152 Y65.995 E16.28093
G1 X136.462 Y65.808 E16.29657
G10 ; retract
G92 E0
G1 X145.547 Y67.097 F7800.000
G11 ; unretract
G92 E0
G1 F900.000
G1 X145.589 Y67.321 E0.00987
G1 X145.593 Y74.515 E0.32064
G1 X145.557 Y74.738 E0.33040
G1 X145.461 Y75.008 E0.34281
G1 X145.260 Y75.308 E0.35841
G1 X145.078 Y75.482 E0.36928
G1 X144.810 Y75.638 E0.38266
G1 X144.321 Y75.751 E0.40436
G1 X137.239 Y75.751 E0.71032
G1 X136.763 Y75.645 E0.73140
G1 X136.414 Y75.425 E0.74924
G1 X136.273 Y75.274 E0.75814
G1 X136.102 Y75.009 E0.77175
G1 X136.003 Y74.727 E0.78466
G1 X135.968 Y74.442 E0.79705
G1 X135.970 Y67.361 E1.10298
G1 X136.005 Y67.138 E1.11274
G1 X136.102 Y66.868 E1.12515
G1 X136.302 Y66.568 E1.14074
G1 X136.485 Y66.394 E1.15161
G1 X136.752 Y66.238 E1.16499
G1 X137.242 Y66.125 E1.18669
G1 X144.276 Y66.125 E1.49061
G1 X144.714 Y66.198 E1.50977
G1 X145.149 Y66.451 E1.53152
G1 X145.290 Y66.602 E1.54044
G1 X145.462 Y66.869 E1.55415
G1 X145.520 Y67.027 E1.56141
G1 X145.033 Y67.208 F7800.000
G1 F900.000
G1 X145.073 Y67.385 E1.56928
G1 X145.073 Y74.491 E1.87624
G1 X145.050 Y74.623 E1.88202
G1 X144.987 Y74.793 E1.88986
G1 X144.854 Y74.983 E1.89991
G1 X144.754 Y75.074 E1.90575
G1 X144.592 Y75.165 E1.91376
G1 X144.294 Y75.232 E1.92699
G1 X137.269 Y75.232 E2.23046
G1 X136.974 Y75.166 E2.24352
G1 X136.762 Y75.038 E2.25423
G1 X136.689 Y74.962 E2.25880
G1 X136.576 Y74.794 E2.26750
G1 X136.514 Y74.628 E2.27519
G1 X136.488 Y74.425 E2.28402
G1 X136.490 Y67.385 E2.58815
G1 X136.512 Y67.254 E2.59394
G1 X136.576 Y67.083 E2.60177
G1 X136.709 Y66.893 E2.61182
G1 X136.809 Y66.802 E2.61766
G1 X136.970 Y66.711 E2.62568
G1 X137.269 Y66.644 E2.63890
G1 X144.255 Y66.645 E2.94072
G1 X144.525 Y66.687 E2.95251
G1 X144.804 Y66.842 E2.96630
G1 X144.874 Y66.915 E2.97066
G1 X145.007 Y67.138 E2.98189
G1 X143.196 Y68.523 F7800.000
;TYPE:Perimeter
G1 F900.000
G1 X143.196 Y73.351 E3.19046
G1 X138.368 Y73.351 E3.39904
G1 X138.368 Y68.524 E3.60759
G1 X143.121 Y68.523 E3.81293
G1 X143.715 Y68.005 F7800.000
G1 F900.000
G1 X143.715 Y73.871 E4.06637
G1 X137.849 Y73.871 E4.31981
G1 X137.849 Y68.005 E4.57325
G1 X143.640 Y68.004 E4.82345
G1 X144.234 Y67.486 F7800.000
;TYPE:External perimeter
G1 F900.000
G1 X144.234 Y74.390 E5.12176
G1 X137.329 Y74.390 E5.42007
G1 X137.329 Y67.486 E5.71838
G1 X144.159 Y67.485 E6.01345
G1 X144.104 Y67.969 F7800.000
G10 ; retract
G92 E0
G1 X139.614 Y73.195
G11 ; unretract
G92 E0
;TYPE:Solid infill
;WIDTH:0.581266
G1 F900.000
G1 X138.758 Y72.339 E0.05420
G1 X138.758 Y71.578 E0.08828
G1 X140.142 Y72.962 E0.17588
G1 X140.903 Y72.962 E0.20996
G1 X138.758 Y70.817 E0.34575
G1 X138.758 Y70.055 E0.37983
G1 X141.664 Y72.962 E0.56382
G1 X142.426 Y72.962 E0.59790
G1 X138.758 Y69.294 E0.83008
G1 X138.758 Y68.914 E0.84711
G1 X139.139 Y68.913 E0.86416
G1 X142.806 Y72.581 E1.09633
G1 X142.806 Y71.820 E1.13041
G1 X139.900 Y68.913 E1.31438
G1 X140.661 Y68.913 E1.34846
G1 X142.806 Y71.058 E1.48424
G1 X142.806 Y70.297 E1.51832
G1 X141.423 Y68.913 E1.60591
G1 X142.184 Y68.913 E1.63999
G1 X143.040 Y69.769 E1.69419
M106 S255
;LAYER_CHANGE
;Z:0.4
;HEIGHT:0.2
G10 ; retract
G92 E0
G1 Z0.400 F7800.000
M104 S195 ; set temperature
M140 S60 ; set bed temperature
G1 X143.853 Y67.862
G11 ; unretract
G92 E0
;TYPE:Perimeter
;WIDTH:0.5625
G1 F900.000
G1 X143.858 Y74.014 E0.26582
G1 X137.705 Y74.013 E0.53163
G1 X137.705 Y67.863 E0.79735
G1 X143.778 Y67.862 E1.05974
G1 X144.373 Y67.485 F7800.000
G1 F900.000
G1 X144.377 Y74.513 E1.36334
G1 X144.226 Y74.534 E1.36995
G1 X137.185 Y74.533 E1.67413
G1 X137.185 Y67.343 E1.98474
G1 X144.226 Y67.342 E2.28891
G1 X144.373 Y67.362 E2.29531
G1 X144.373 Y67.410 E2.29739
G1 X144.678 Y66.970 F7800.000
;TYPE:External perimeter
G1 F900.000
G1 X144.773 Y67.070 E2.30336
G1 X144.847 Y67.197 E2.30971
G1 X144.892 Y67.381 E2.31792
G1 X144.897 Y74.428 E2.62235
G1 X144.852 Y74.668 E2.63290
G1 X144.738 Y74.848 E2.64211
G1 X144.571 Y74.980 E2.65131
G1 X144.470 Y75.025 E2.65609
G1 X144.262 Y75.054 E2.66516
G1 X137.231 Y75.052 E2.96894
G1 X137.099 Y75.027 E2.97471
G1 X136.885 Y74.906 E2.98533
G1 X136.790 Y74.806 E2.99130
G1 X136.714 Y74.677 E2.99781
G1 X136.666 Y74.428 E3.00876
G1 X136.666 Y67.448 E3.31028
G1 X136.711 Y67.208 E3.32083
G1 X136.825 Y67.028 E3.33005
G1 X136.992 Y66.896 E3.33924
G1 X137.099 Y66.849 E3.34433
G1 X137.231 Y66.824 E3.35010
G1 X144.262 Y66.822 E3.65387
G1 X144.470 Y66.851 E3.66295
G1 X144.616 Y66.927 E3.67005
G1 X144.660 Y67.107 F7800.000
G10 ; retract
G92 E0
G1 X142.649 Y73.858
G11 ; unretract
G92 E0
;TYPE:Solid infill
;WIDTH:0.563728
G1 F1200.000
G1 X143.467 Y73.040 E0.05012
G1 X143.467 Y72.304 E0.08199
G1 X142.146 Y73.624 E0.16286
G1 X141.410 Y73.624 E0.19475
G1 X143.466 Y71.568 E0.32069
G1 X143.466 Y70.832 E0.35256
G1 X140.673 Y73.624 E0.52357
G1 X139.937 Y73.624 E0.55546
G1 X143.465 Y70.096 E0.77154
G1 X143.465 Y69.360 E0.80341
G1 X139.201 Y73.624 E1.06455
G1 X138.464 Y73.624 E1.09644
G1 X143.464 Y68.624 E1.40266
G1 X143.464 Y68.251 E1.41878
G1 X143.100 Y68.251 E1.43454
G1 X138.095 Y73.257 E1.74108
G1 X138.095 Y72.520 E1.77298
G1 X142.363 Y68.252 E2.03440
G1 X141.627 Y68.252 E2.06630
G1 X138.095 Y71.784 E2.28261
G1 X138.095 Y71.047 E2.31450
G1 X140.890 Y68.252 E2.48570
G1 X140.153 Y68.252 E2.51760
G1 X138.095 Y70.311 E2.64367
G1 X138.095 Y69.574 E2.67557
G1 X139.417 Y68.252 E2.75653
G1 X138.680 Y68.252 E2.78843
G1 X137.861 Y69.071 E2.83860
;LAYER_CHANGE
;Z:0.6
;HEIGHT:0.2
G10 ; retract
G92 E0
G1 Z0.600 F7800.000
G1 X144.076 Y67.644
G11 ; unretract
G92 E0
;TYPE:Perimeter
;WIDTH:0.5625
G1 F900.000
G1 X144.076 Y74.232 E0.28466
G1 X137.487 Y74.231 E0.56932
G1 X137.487 Y67.645 E0.85384
G1 X144.001 Y67.644 E1.13526
G1 X144.451 Y67.176 F7800.000
G1 F900.000
G1 X144.554 Y67.292 E1.14197
G1 X144.595 Y67.468 E1.14977
G1 X144.595 Y74.408 E1.44961
G1 X144.577 Y74.531 E1.45498
G1 X144.472 Y74.679 E1.46283
G1 X144.379 Y74.735 E1.46747
G1 X144.234 Y74.752 E1.47382
G1 X137.251 Y74.750 E1.77547
G1 X137.160 Y74.725 E1.77956
G1 X137.071 Y74.668 E1.78417
G1 X137.004 Y74.577 E1.78902
G1 X136.967 Y74.398 E1.79690
G1 X136.967 Y67.468 E2.09632
G1 X136.986 Y67.345 E2.10168
G1 X137.071 Y67.208 E2.10862
G1 X137.160 Y67.151 E2.11322
G1 X137.251 Y67.126 E2.11731
G1 X144.234 Y67.124 E2.41897
G1 X144.384 Y67.142 E2.42552
G1 X144.811 Y66.798 F7800.000
;TYPE:External perimeter
G1 F900.000
G1 X144.948 Y66.938 E2.43397
G1 X145.031 Y67.078 E2.44104
G1 X145.105 Y67.310 E2.45152
G1 X145.115 Y67.448 E2.45753
G1 X145.115 Y74.428 E2.75905
G1 X145.104 Y74.572 E2.76530
G1 X145.062 Y74.727 E2.77224
G1 X144.947 Y74.937 E2.78259
G1 X144.795 Y75.091 E2.79194
G1 X144.606 Y75.205 E2.80148
G1 X144.494 Y75.244 E2.80660
G1 X144.265 Y75.272 E2.81658
G1 X137.205 Y75.270 E3.12156
G1 X136.950 Y75.202 E3.13297
G1 X136.716 Y75.050 E3.14505
G1 X136.615 Y74.938 E3.15155
G1 X136.530 Y74.795 E3.15874
G1 X136.466 Y74.606 E3.16735
G1 X136.448 Y74.424 E3.17527
G1 X136.448 Y67.448 E3.47664
G1 X136.459 Y67.304 E3.48289
G1 X136.501 Y67.149 E3.48982
G1 X136.619 Y66.934 E3.50044
G1 X136.716 Y66.826 E3.50670
G1 X136.950 Y66.674 E3.51878
G1 X137.205 Y66.606 E3.53019
G1 X144.265 Y66.604 E3.83517
G1 X144.494 Y66.632 E3.84515
