; generated by PrusaSlicer 2.3.0-rc2+linux-x64 on 2021-05-31 at 05:57:07 UTC

; 

; external perimeters extrusion width = 0.56mm
; perimeters extrusion width = 0.56mm
; infill extrusion width = 0.56mm
; solid infill extrusion width = 0.56mm
; top infill extrusion width = 0.50mm
; support material extrusion width = 0.50mm

M201 X1000 Y1000 Z500 E1000 ; sets maximum accelerations, mm/sec^2
M203 X500 Y500 Z12 E120 ; sets maximum feedrates, mm/sec
M204 P1000 R1000 T1000 ; sets acceleration (P, T) and retract acceleration (R), mm/sec^2
M205 X10.00 Y10.00 Z0.20 E2.50 ; sets the jerk limits, mm/sec
M205 S0 T0 ; sets the minimum extruding and travel feed rate, mm/sec
M107
;TYPE:Custom
M104 S200 ; set extruder temp
M140 S65 ; set bed temp
M190 S65 ; wait for bed temp
M109 S200 ; wait for extruder temp

M501
M220 S100 ;Reset Feedrate
M221 S100 ;Reset Flowrate

G90;
M82;

G28 X Y ;Home X Y
G28 Z ;Home Z
M420 S1 Z8 ;Enable ABL using saved Mesh and Fade Height

G92 E0 ;Reset Extruder
G1 Z2.0 F3000 ;Move Z Axis up
G1 X10.1 Y20 Z2.0 F5000.0 ;Move to start position
G1 X10.1 Y20 Z0.2 F5000.0 ;Move to start position
G1 X10.1 Y200.0 F1500.0 E15 ;Draw the first line
G1 X10.4 Y200.0 F5000.0 ;Move to side a little
G1 X10.4 Y20 F1500.0 E30 ;Draw the second line

G92 E0 ;Reset Extruder
G1 Z10.0 F3000 ;Move Z Axis up
G4 P3000 ;Dwell
G21 ; set units to millimeters
G90 ; use absolute coordinates
M82 ; use absolute distances for extrusion
G92 E0
; Filament gcode
;LAYER_CHANGE
;Z:0.2
;HEIGHT:0.2
G10 ; retract
G92 E0
G1 Z0.200 F7800.000
G1 X87.534 Y69.047
G11 ; unretract
G92 E0
;TYPE:Skirt
;WIDTH:0.5625
G1 F900.000
G1 X88.233 Y68.206 E0.04724
G1 X97.514 Y58.777 E0.61886
G1 X98.501 Y58.013 E0.67276
G1 X99.631 Y57.333 E0.72978
G1 X100.990 Y56.734 E0.79392
G1 X102.217 Y56.367 E0.84924
G1 X104.283 Y56.082 E0.93935
G1 X129.709 Y55.382 E2.03827
G1 X183.541 Y54.725 E4.36414
G1 X184.897 Y54.826 E4.42289
G1 X186.189 Y55.098 E4.47993
G1 X187.428 Y55.536 E4.53671
G1 X188.644 Y56.159 E4.59573
G1 X189.610 Y56.819 E4.64628
G1 X190.543 Y57.637 E4.69988
G1 X191.798 Y58.983 E4.77940
G1 X192.976 Y60.484 E4.86183
G1 X193.976 Y62.008 E4.94057
G1 X194.834 Y63.586 E5.01818
G1 X195.583 Y65.283 E5.09835
G1 X196.065 Y66.642 E5.16064
G1 X196.540 Y68.376 E5.23829
G1 X196.882 Y70.207 E5.31876
G1 X197.068 Y72.073 E5.39980
G1 X197.087 Y73.802 E5.47448
G1 X196.933 Y74.865 E5.52088
G1 X196.621 Y75.885 E5.56699
G1 X196.159 Y76.847 E5.61310
G1 X195.556 Y77.728 E5.65922
G1 X186.416 Y87.112 E6.22517
G1 X185.303 Y88.090 E6.28918
G1 X183.940 Y88.982 E6.35953
G1 X182.640 Y89.595 E6.42164
G1 X181.130 Y90.068 E6.49002
G1 X179.064 Y90.354 E6.58013
G1 X153.631 Y91.054 E7.67933
G1 X100.071 Y91.709 E9.99346
G1 X98.554 Y91.624 E10.05912
G1 X97.630 Y91.457 E10.09968
G1 X96.593 Y91.160 E10.14627
G1 X94.787 Y90.327 E10.23219
G1 X93.250 Y89.215 E10.31417
G1 X91.591 Y87.502 E10.41717
G1 X90.039 Y85.476 E10.52742
G1 X88.720 Y83.261 E10.63880
G1 X87.543 Y80.566 E10.76589
G1 X86.826 Y78.143 E10.87505
G1 X86.375 Y75.517 E10.99015
G1 X86.254 Y73.803 E11.06440
G1 X86.264 Y72.562 E11.11801
G1 X86.401 Y71.628 E11.15876
G1 X86.663 Y70.716 E11.19979
G1 X87.042 Y69.852 E11.24054
G1 X87.495 Y69.111 E11.27805
G1 X87.938 Y69.383 F7800.000
G1 F900.000
G1 X88.608 Y68.565 E11.32376
G1 X97.851 Y59.173 E11.89307
G1 X98.791 Y58.444 E11.94444
G1 X99.880 Y57.789 E11.99936
G1 X101.184 Y57.216 E12.06088
G1 X102.373 Y56.864 E12.11444
G1 X104.307 Y56.601 E12.19879
G1 X129.722 Y55.901 E13.29719
G1 X183.543 Y55.244 E15.62263
G1 X184.830 Y55.341 E15.67840
G1 X186.056 Y55.601 E15.73253
G1 X187.231 Y56.017 E15.78639
G1 X188.396 Y56.617 E15.84297
G1 X189.299 Y57.236 E15.89030
G1 X190.187 Y58.016 E15.94137
G1 X191.406 Y59.324 E16.01859
G1 X192.573 Y60.815 E16.10041
G1 X193.532 Y62.278 E16.17597
G1 X194.373 Y63.825 E16.25208
G1 X195.104 Y65.484 E16.33036
G1 X195.572 Y66.804 E16.39089
G1 X196.035 Y68.496 E16.46666
G1 X196.369 Y70.290 E16.54552
G1 X196.550 Y72.113 E16.62465
G1 X196.566 Y73.813 E16.69809
G1 X196.417 Y74.791 E16.74083
G1 X196.122 Y75.735 E16.78358
G1 X195.688 Y76.624 E16.82633
G1 X195.124 Y77.437 E16.86907
G1 X186.027 Y86.767 E17.43202
G1 X184.975 Y87.686 E17.49238
G1 X183.667 Y88.540 E17.55988
G1 X182.436 Y89.117 E17.61861
G1 X180.974 Y89.572 E17.68476
G1 X179.039 Y89.835 E17.76910
G1 X153.619 Y90.534 E18.86778
G1 X100.065 Y91.189 E21.18163
G1 X98.635 Y91.110 E21.24352
G1 X96.762 Y90.669 E21.32668
G1 X95.037 Y89.871 E21.40875
G1 X93.581 Y88.815 E21.48649
G1 X91.965 Y87.140 E21.58700
G1 X90.467 Y85.182 E21.69353
G1 X89.180 Y83.020 E21.80224
G1 X88.028 Y80.379 E21.92671
G1 X87.323 Y77.989 E22.03437
G1 X86.892 Y75.464 E22.14502
G1 X86.774 Y73.788 E22.21762
G1 X86.781 Y72.623 E22.26796
G1 X86.906 Y71.749 E22.30609
G1 X87.151 Y70.895 E22.34449
G1 X87.509 Y70.081 E22.38288
G1 X87.898 Y69.447 E22.41504
G10 ; retract
G92 E0
G1 X98.389 Y74.521 F7800.000
G11 ; unretract
G92 E0
;TYPE:Perimeter
G1 F900.000
G1 X102.608 Y66.082 E0.40759
G1 X102.749 Y65.834 E0.41992
G1 X103.001 Y65.508 E0.43773
G1 X103.290 Y65.240 E0.45475
G1 X103.619 Y65.024 E0.47177
G1 X104.162 Y64.785 E0.49738
G1 X104.162 Y70.657 E0.75108
G1 X104.009 Y70.931 E0.76464
G1 X103.792 Y71.424 E0.78789
G1 X103.679 Y71.762 E0.80330
G1 X103.557 Y72.286 E0.82655
G1 X103.509 Y72.640 E0.84196
G1 X103.486 Y73.177 E0.86521
G1 X103.504 Y73.535 E0.88069
G1 X103.589 Y74.105 E0.90558
G1 X103.737 Y74.642 E0.92965
G1 X103.863 Y74.976 E0.94506
G1 X104.100 Y75.459 E0.96831
G1 X104.286 Y75.763 E0.98372
G1 X104.620 Y76.209 E1.00779
G1 X105.018 Y76.625 E1.03267
G1 X105.290 Y76.859 E1.04815
G1 X105.653 Y77.117 E1.06740
G1 X105.214 Y77.326 E1.08839
G1 X104.648 Y77.664 E1.11690
G1 X104.102 Y78.062 E1.14607
G1 X103.387 Y78.723 E1.18815
G1 X102.770 Y79.477 E1.23024
G1 X102.425 Y80.015 E1.25788
G1 X101.033 Y82.415 E1.37775
G1 X100.856 Y82.634 E1.38988
G1 X100.642 Y82.814 E1.40196
G1 X100.354 Y82.963 E1.41598
G1 X100.188 Y83.013 E1.42346
G1 X99.845 Y83.049 E1.43838
G1 X99.672 Y83.034 E1.44586
G1 X99.503 Y82.998 E1.45333
G1 X99.203 Y82.873 E1.46736
G1 X98.969 Y82.706 E1.47982
G1 X98.378 Y82.104 E1.51624
G1 X97.888 Y81.534 E1.54874
G1 X97.427 Y80.931 E1.58153
G1 X97.001 Y80.303 E1.61432
G1 X96.611 Y79.651 E1.64711
G1 X96.263 Y78.987 E1.67950
G1 X96.146 Y78.719 E1.69213
G1 X96.477 Y78.731 E1.70640
G1 X97.015 Y78.631 E1.73005
G1 X97.380 Y78.494 E1.74689
G1 X97.825 Y78.237 E1.76910
G1 X98.227 Y77.874 E1.79250
G1 X98.469 Y77.562 E1.80957
G1 X98.723 Y77.084 E1.83297
G1 X98.871 Y76.559 E1.85652
G1 X98.906 Y76.019 E1.87992
G1 X98.862 Y75.626 E1.89699
G1 X98.709 Y75.100 E1.92064
G1 X98.425 Y74.586 E1.94602
G1 X97.963 Y74.211 F7800.000
G1 F900.000
G1 X102.149 Y65.837 E2.35050
G1 X102.316 Y65.545 E2.36501
G1 X102.616 Y65.156 E2.38625
G1 X102.969 Y64.830 E2.40700
G1 X103.370 Y64.566 E2.42776
G1 X103.820 Y64.368 E2.44900
G1 X104.118 Y64.283 E2.46237
G1 X104.434 Y64.230 E2.47622
G1 X104.681 Y64.216 E2.48692
G1 X104.681 Y70.812 E2.77186
G1 X104.474 Y71.163 E2.78948
G1 X104.277 Y71.611 E2.81064
G1 X104.179 Y71.904 E2.82395
G1 X104.068 Y72.380 E2.84510
G1 X104.027 Y72.686 E2.85842
G1 X104.006 Y73.175 E2.87957
G1 X104.022 Y73.484 E2.89293
G1 X104.098 Y73.998 E2.91536
G1 X104.231 Y74.481 E2.93701
G1 X104.340 Y74.769 E2.95033
G1 X104.556 Y75.209 E2.97148
G1 X104.717 Y75.471 E2.98480
G1 X105.017 Y75.873 E3.00645
G1 X105.376 Y76.248 E3.02888
G1 X105.610 Y76.449 E3.04224
G1 X106.010 Y76.733 E3.06339
G1 X106.276 Y76.887 E3.07671
G1 X106.926 Y77.186 E3.10759
G1 X106.012 Y77.522 E3.14965
G1 X105.460 Y77.785 E3.17608
G1 X104.934 Y78.098 E3.20250
G1 X104.433 Y78.464 E3.22933
G1 X103.766 Y79.080 E3.26855
G1 X103.191 Y79.782 E3.30777
G1 X102.868 Y80.286 E3.33361
G1 X101.462 Y82.711 E3.45473
G1 X101.229 Y82.999 E3.47073
G1 X100.946 Y83.237 E3.48670
G1 X100.753 Y83.354 E3.49646
G1 X100.535 Y83.451 E3.50676
G1 X100.307 Y83.520 E3.51706
G1 X100.072 Y83.560 E3.52737
G1 X99.833 Y83.569 E3.53767
G1 X99.596 Y83.549 E3.54797
G1 X99.363 Y83.500 E3.55827
G1 X99.137 Y83.421 E3.56857
G1 X98.935 Y83.320 E3.57833
G1 X98.630 Y83.103 E3.59453
G1 X97.995 Y82.456 E3.63368
G1 X97.484 Y81.861 E3.66757
G1 X97.005 Y81.235 E3.70164
G1 X96.563 Y80.582 E3.73570
G1 X96.158 Y79.905 E3.76977
G1 X95.795 Y79.212 E3.80359
G1 X95.271 Y78.012 E3.86015
G1 X95.977 Y78.193 E3.89166
G1 X96.438 Y78.210 E3.91157
G1 X96.875 Y78.129 E3.93078
G1 X97.157 Y78.023 E3.94380
G1 X97.517 Y77.815 E3.96176
G1 X97.844 Y77.519 E3.98082
G1 X98.032 Y77.279 E3.99398
G1 X98.238 Y76.889 E4.01303
G1 X98.356 Y76.471 E4.03181
G1 X98.384 Y76.031 E4.05086
G1 X98.351 Y75.728 E4.06403
G1 X98.226 Y75.301 E4.08323
G1 X98.004 Y74.899 E4.10309
G1 X97.731 Y74.585 E4.12105
G1 X97.277 Y74.211 E4.14649
G1 X97.888 Y74.211 E4.17288
G10 ; retract
G92 E0
G1 X104.540 Y73.432 F7800.000
G11 ; unretract
G92 E0
;TYPE:External perimeter
G1 F900.000
G1 X104.526 Y73.173 E0.01123
G1 X104.545 Y72.732 E0.03029
G1 X104.580 Y72.475 E0.04151
G1 X104.680 Y72.045 E0.06057
G1 X104.762 Y71.799 E0.07178
G1 X104.940 Y71.395 E0.09084
G1 X105.067 Y71.168 E0.10207
G1 X105.330 Y70.787 E0.12206
G1 X105.628 Y70.452 E0.14147
G1 X105.975 Y70.146 E0.16146
G1 X106.186 Y69.993 E0.17269
G1 X106.566 Y69.769 E0.19175
G1 X106.801 Y69.658 E0.20297
G1 X107.215 Y69.508 E0.22203
G1 X107.467 Y69.443 E0.23324
G1 X107.902 Y69.373 E0.25230
G1 X108.161 Y69.356 E0.26352
G1 X108.602 Y69.367 E0.28258
G1 X108.860 Y69.398 E0.29380
G1 X109.291 Y69.492 E0.31285
G1 X109.539 Y69.570 E0.32407
G1 X109.945 Y69.742 E0.34313
G1 X110.174 Y69.865 E0.35435
G1 X110.545 Y70.111 E0.37358
G1 X110.896 Y70.412 E0.39357
G1 X111.076 Y70.599 E0.40480
G1 X111.351 Y70.944 E0.42386
G1 X111.494 Y71.161 E0.43508
G1 X111.700 Y71.551 E0.45414
G1 X111.800 Y71.791 E0.46537
G1 X111.935 Y72.234 E0.48536
G1 X112.013 Y72.672 E0.50459
G1 X112.034 Y72.931 E0.51581
G1 X112.030 Y73.372 E0.53487
G1 X112.002 Y73.630 E0.54608
G1 X111.915 Y74.067 E0.56532
G1 X111.770 Y74.506 E0.58531
G1 X111.665 Y74.744 E0.59654
G1 X111.450 Y75.129 E0.61560
G1 X111.303 Y75.343 E0.62682
G1 X111.020 Y75.682 E0.64587
G1 X110.836 Y75.865 E0.65709
G1 X110.496 Y76.145 E0.67615
G1 X110.280 Y76.291 E0.68738
G1 X109.874 Y76.513 E0.70737
G1 X109.457 Y76.679 E0.72678
G1 X109.009 Y76.796 E0.74677
G1 X108.752 Y76.837 E0.75800
G1 X108.308 Y76.867 E0.77724
G1 X107.846 Y76.841 E0.79723
G1 X107.589 Y76.802 E0.80846
G1 X107.161 Y76.695 E0.82752
G1 X106.916 Y76.609 E0.83873
G1 X106.515 Y76.425 E0.85779
G1 X106.291 Y76.295 E0.86901
G1 X105.931 Y76.040 E0.88807
G1 X105.734 Y75.870 E0.89930
G1 X105.414 Y75.536 E0.91929
G1 X105.147 Y75.180 E0.93852
G1 X105.012 Y74.958 E0.94974
G1 X104.818 Y74.562 E0.96880
G1 X104.726 Y74.319 E0.98002
G1 X104.607 Y73.890 E0.99925
G1 X104.551 Y73.507 E1.01600
G1 X104.302 Y73.326 F7800.000
G10 ; retract
G92 E0
G1 X97.839 Y75.830
G11 ; unretract
G92 E0
G1 F900.000
G1 X97.863 Y76.043 E0.00925
G1 X97.841 Y76.383 E0.02396
G1 X97.753 Y76.694 E0.03796
G1 X97.594 Y76.995 E0.05267
G1 X97.462 Y77.164 E0.06192
G1 X97.210 Y77.393 E0.07663
G1 X96.935 Y77.551 E0.09034
G1 X96.735 Y77.626 E0.09955
G1 X96.399 Y77.689 E0.11431
G1 X96.052 Y77.676 E0.12932
G1 X95.738 Y77.595 E0.14333
G1 X95.432 Y77.443 E0.15810
G1 X95.261 Y77.312 E0.16740
G1 X95.028 Y77.063 E0.18214
G1 X94.867 Y76.781 E0.19617
G1 X94.768 Y76.465 E0.21048
G1 X94.711 Y76.132 E0.22506
G1 X94.742 Y75.783 E0.24020
G1 X94.844 Y75.458 E0.25492
G1 X94.944 Y75.268 E0.26421
G1 X95.139 Y75.016 E0.27796
G1 X95.400 Y74.797 E0.29267
G1 X95.585 Y74.690 E0.30189
G1 X95.882 Y74.579 E0.31560
G1 X96.225 Y74.528 E0.33060
G1 X96.572 Y74.554 E0.34564
G1 X96.906 Y74.655 E0.36069
G1 X97.203 Y74.824 E0.37545
G1 X97.367 Y74.959 E0.38465
G1 X97.576 Y75.198 E0.39836
G1 X97.744 Y75.502 E0.41336
G1 X97.818 Y75.758 E0.42488
G1 X98.043 Y75.897 F7800.000
G1 X95.289 Y74.211
;TYPE:Perimeter
G1 F900.000
G1 X94.762 Y74.654 E0.45462
G1 X94.512 Y74.978 E0.47229
G1 X94.424 Y74.211 E0.50563
G1 X95.214 Y74.211 E0.53974
G10 ; retract
G92 E0
G1 X105.201 Y69.752 F7800.000
G11 ; unretract
G92 E0
;TYPE:External perimeter
G1 F900.000
G1 X106.463 Y69.084 E0.06171
G1 X107.085 Y68.858 E0.09028
G1 X107.732 Y68.727 E0.11879
G1 X108.390 Y68.694 E0.14729
G1 X109.051 Y68.759 E0.17595
G1 X109.476 Y68.856 E0.19481
G1 X109.890 Y68.995 E0.21368
G1 X110.488 Y69.282 E0.24233
G1 X111.034 Y69.654 E0.27084
G1 X111.518 Y70.102 E0.29934
G1 X111.930 Y70.617 E0.32785
G1 X112.262 Y71.191 E0.35651
G1 X112.432 Y71.593 E0.37537
G1 X112.561 Y72.011 E0.39423
G1 X112.678 Y72.667 E0.42304
G1 X112.700 Y73.103 E0.44191
G1 X112.679 Y73.539 E0.46077
G1 X112.565 Y74.193 E0.48943
G1 X112.355 Y74.822 E0.51808
G1 X112.167 Y75.216 E0.53695
G1 X111.940 Y75.589 E0.55581
G1 X111.527 Y76.108 E0.58447
G1 X111.042 Y76.560 E0.61312
G1 X110.688 Y76.816 E0.63199
G1 X110.310 Y77.035 E0.65085
G1 X109.697 Y77.296 E0.67966
G1 X109.277 Y77.415 E0.69852
G1 X108.845 Y77.492 E0.71748
G1 X108.118 Y77.542 E0.74897
G1 X107.561 Y77.609 E0.77321
G1 X106.746 Y77.805 E0.80943
G1 X106.214 Y78.001 E0.83391
G1 X105.705 Y78.243 E0.85825
G1 X105.221 Y78.532 E0.88260
G1 X104.763 Y78.866 E0.90708
G1 X104.145 Y79.437 E0.94344
G1 X103.612 Y80.088 E0.97979
G1 X103.312 Y80.557 E1.00383
G1 X101.891 Y83.007 E1.12619
G1 X101.601 Y83.364 E1.14607
G1 X101.250 Y83.661 E1.16593
G1 X100.994 Y83.816 E1.17887
G1 X100.716 Y83.939 E1.19200
G1 X100.425 Y84.027 E1.20513
G1 X100.126 Y84.077 E1.21826
G1 X99.822 Y84.090 E1.23139
G1 X99.519 Y84.064 E1.24452
G1 X99.222 Y84.001 E1.25764
G1 X98.935 Y83.901 E1.27077
G1 X98.667 Y83.767 E1.28371
G1 X98.291 Y83.499 E1.30366
G1 X97.612 Y82.808 E1.34553
G1 X97.080 Y82.188 E1.38081
G1 X96.583 Y81.538 E1.41615
G1 X96.124 Y80.861 E1.45148
G1 X95.704 Y80.159 E1.48682
G1 X95.326 Y79.437 E1.52208
G1 X94.833 Y78.308 E1.57529
G1 X94.557 Y77.531 E1.61090
G1 X94.307 Y76.753 E1.64620
G1 X94.217 Y76.370 E1.66319
G1 X94.008 Y75.150 E1.71668
G1 X93.916 Y74.337 E1.75203
G1 X93.883 Y73.691 E1.77996
G1 X97.641 Y73.691 E1.94235
G1 X101.691 Y65.592 E2.33358
G1 X101.883 Y65.256 E2.35027
G1 X102.231 Y64.805 E2.37493
G1 X102.647 Y64.419 E2.39942
G1 X103.121 Y64.108 E2.42392
G1 X103.644 Y63.878 E2.44858
G1 X104.004 Y63.775 E2.46475
G1 X104.377 Y63.713 E2.48109
G1 X105.201 Y63.691 E2.51672
G1 X105.201 Y69.677 E2.77532
G1 X105.382 Y70.218 F7800.000
G1 X105.228 Y70.032
;TYPE:Gap fill
;WIDTH:0.253239
G1 F900.000
G1 X104.957 Y70.814 E2.78980
G1 X104.941 Y70.462 F7800.000
;WIDTH:0.403625
G1 F900.000
G1 X105.325 Y70.161 E2.80443
;WIDTH:0.279023
G1 X105.747 Y69.868 E2.81452
;WIDTH:0.17463
G1 X106.004 Y69.709 E2.81783
G1 X106.598 Y69.387 E2.82523
G1 X107.175 Y69.177 E2.83195
G1 X107.773 Y69.057 E2.83863
G1 X108.152 Y69.031 E2.84279
G1 X108.623 Y69.043 E2.84796
G1 X108.997 Y69.088 E2.85208
G1 X109.387 Y69.175 E2.85645
G1 X109.765 Y69.304 E2.86083
G1 X110.323 Y69.570 E2.86759
G1 X110.738 Y69.848 E2.87307
G1 X111.275 Y70.328 E2.88096
G1 X111.619 Y70.754 E2.88696
G1 X111.772 Y70.994 E2.89007
G1 X111.964 Y71.340 E2.89441
G1 X112.120 Y71.707 E2.89878
G1 X112.253 Y72.153 E2.90387
G1 X112.339 Y72.633 E2.90921
G1 X112.363 Y72.922 E2.91239
G1 X112.358 Y73.394 E2.91756
G1 X112.324 Y73.682 E2.92074
G1 X112.232 Y74.155 E2.92601
G1 X112.048 Y74.697 E2.93228
G1 X111.873 Y75.056 E2.93666
G1 X111.667 Y75.399 E2.94103
G1 X111.284 Y75.883 E2.94780
G1 X111.052 Y76.108 E2.95133
G1 X110.690 Y76.410 E2.95650
G1 X110.449 Y76.574 E2.95969
G1 X110.009 Y76.810 E2.96515
;WIDTH:0.18447
G1 X109.586 Y76.983 E2.97053
G1 X109.202 Y77.090 E2.97523
G1 X108.804 Y77.164 E2.97999
G1 X108.306 Y77.198 E2.98587
;WIDTH:0.211979
G1 X108.083 Y77.199 E2.98900
;WIDTH:0.261614
G1 X107.803 Y77.208 E2.99409
;WIDTH:0.282525
G1 X107.726 Y77.207 E2.99563
G10 ; retract
G92 E0
G1 X96.769 Y74.129 F7800.000
G11 ; unretract
G92 E0
;WIDTH:0.378856
G1 F900.000
G1 X96.227 Y74.109 E0.01514
;WIDTH:0.360462
G1 X95.776 Y74.141 E0.02709
G1 X95.489 Y74.419 F7800.000
;WIDTH:0.145557
G1 F900.000
G1 X95.588 Y74.361 E0.02806
;WIDTH:0.180694
G1 X95.687 Y74.303 E0.02938
;WIDTH:0.215831
G1 X95.786 Y74.245 E0.03103
;WIDTH:0.224393
G1 X96.357 Y73.951 E0.04071
G1 X96.312 Y73.951 F7800.000
;WIDTH:0.111411
G1 F900.000
G1 X97.058 Y74.408 E0.04569
G1 X97.076 Y74.382 F7800.000
;WIDTH:0.289354
G1 F900.000
