; generated by PrusaSlicer 2.3.0-rc2+linux-x64 on 2021-05-31 at 04:22:32 UTC

; 

; external perimeters extrusion width = 0.56mm
; perimeters extrusion width = 0.56mm
; infill extrusion width = 0.56mm
; solid infill extrusion width = 0.56mm
; top infill extrusion width = 0.50mm
; support material extrusion width = 0.50mm

M201 X1000 Y1000 Z500 E1000 ; sets maximum accelerations, mm/sec^2
M203 X500 Y500 Z12 E120 ; sets maximum feedrates, mm/sec
M204 P1000 R1000 T1000 ; sets acceleration (P, T) and retract acceleration (R), mm/sec^2
M205 X10.00 Y10.00 Z0.20 E2.50 ; sets the jerk limits, mm/sec
M205 S0 T0 ; sets the minimum extruding and travel feed rate, mm/sec
M107
;TYPE:Custom
M104 S200 ; set extruder temp
M140 S65 ; set bed temp
M190 S65 ; wait for bed temp
M109 S200 ; wait for extruder temp

M501
M220 S100 ;Reset Feedrate
M221 S100 ;Reset Flowrate

G90;
M82;

G28 X Y ;Home X Y
G28 Z ;Home Z
M420 S1 Z8 ;Enable ABL using saved Mesh and Fade Height

G92 E0 ;Reset Extruder
G1 Z2.0 F3000 ;Move Z Axis up
G1 X10.1 Y20 Z2.0 F5000.0 ;Move to start position
G1 X10.1 Y20 Z0.2 F5000.0 ;Move to start position
G1 X10.1 Y200.0 F1500.0 E15 ;Draw the first line
G1 X10.4 Y200.0 F5000.0 ;Move to side a little
G1 X10.4 Y20 F1500.0 E30 ;Draw the second line

G92 E0 ;Reset Extruder
G1 Z10.0 F3000 ;Move Z Axis up
G4 P3000 ;Dwell
G21 ; set units to millimeters
G90 ; use absolute coordinates
M82 ; use absolute distances for extrusion
G92 E0
; Filament gcode
;LAYER_CHANGE
;Z:0.2
;HEIGHT:0.2
G10 ; retract
G92 E0
G1 Z0.200 F7800.000
G1 X128.243 Y63.565
G11 ; unretract
G92 E0
;TYPE:Skirt
;WIDTH:0.5625
G1 F900.000
G1 X128.632 Y62.578 E0.04583
G1 X132.602 Y55.085 E0.41218
G1 X133.119 Y54.343 E0.45123
G1 X133.726 Y53.674 E0.49028
G1 X134.409 Y53.092 E0.52905
G1 X135.167 Y52.598 E0.56810
G1 X143.037 Y48.859 E0.94454
G1 X144.479 Y48.386 E1.01011
G1 X145.884 Y48.234 E1.07117
G1 X164.993 Y48.233 E1.89677
G1 X166.522 Y48.401 E1.96318
G1 X167.983 Y48.900 E2.02988
G1 X174.968 Y52.584 E2.37107
G1 X176.288 Y53.538 E2.44142
G1 X177.059 Y54.367 E2.49036
G1 X177.690 Y55.316 E2.53958
G1 X181.471 Y62.463 E2.88891
G1 X181.986 Y63.807 E2.95110
G1 X182.166 Y64.693 E2.99015
G1 X182.230 Y65.588 E3.02892
G1 X182.230 Y85.697 E3.89769
G1 X182.175 Y86.554 E3.93476
G1 X181.970 Y87.574 E3.97975
G1 X181.616 Y88.554 E4.02473
G1 X177.929 Y96.033 E4.38498
G1 X177.399 Y96.789 E4.42488
G1 X176.771 Y97.475 E4.46506
G1 X176.063 Y98.068 E4.50496
G1 X175.277 Y98.566 E4.54514
G1 X167.803 Y102.297 E4.90606
G1 X166.617 Y102.693 E4.96008
G1 X165.379 Y102.872 E5.01409
G1 X145.918 Y102.882 E5.85489
G1 X144.925 Y102.809 E5.89789
G1 X144.035 Y102.620 E5.93723
G1 X143.176 Y102.318 E5.97656
G1 X134.604 Y98.407 E6.38362
G1 X133.837 Y97.869 E6.42408
G1 X133.148 Y97.235 E6.46455
G1 X132.550 Y96.514 E6.50501
G1 X132.052 Y95.721 E6.54548
G1 X128.488 Y88.426 E6.89625
G1 X128.105 Y87.243 E6.94998
G1 X127.936 Y86.004 E7.00400
G1 X127.929 Y65.617 E7.88475
G1 X128.008 Y64.592 E7.92917
G1 X128.226 Y63.638 E7.97148
G1 X128.732 Y63.754 F7800.000
G1 F900.000
G1 X129.105 Y62.791 E8.01609
G1 X133.068 Y55.320 E8.38145
G1 X133.551 Y54.635 E8.41768
G1 X134.114 Y54.022 E8.45363
G1 X134.750 Y53.486 E8.48958
G1 X135.455 Y53.032 E8.52580
G1 X143.255 Y49.331 E8.89878
G1 X144.626 Y48.886 E8.96106
G1 X145.898 Y48.753 E9.01630
G1 X164.993 Y48.753 E9.84130
G1 X166.426 Y48.912 E9.90359
G1 X167.783 Y49.380 E9.96560
G1 X174.708 Y53.035 E10.30389
G1 X175.957 Y53.939 E10.37051
G1 X176.666 Y54.708 E10.41570
G1 X177.243 Y55.581 E10.46089
G1 X181.006 Y62.697 E10.80866
G1 X181.493 Y63.973 E10.86769
G1 X181.653 Y64.777 E10.90309
G1 X181.710 Y65.595 E10.93850
G1 X181.659 Y86.495 E11.84149
G1 X181.466 Y87.447 E11.88342
G1 X181.134 Y88.359 E11.92535
G1 X177.466 Y95.794 E12.28352
G1 X176.975 Y96.489 E12.32029
G1 X176.393 Y97.118 E12.35733
G1 X175.733 Y97.665 E12.39437
G1 X175.007 Y98.122 E12.43140
G1 X167.606 Y101.816 E12.78877
G1 X166.489 Y102.189 E12.83966
G1 X165.323 Y102.354 E12.89055
G1 X145.919 Y102.363 E13.72885
G1 X145.001 Y102.295 E13.76861
G1 X144.175 Y102.120 E13.80510
G1 X143.372 Y101.837 E13.84187
G1 X134.841 Y97.943 E14.24701
G1 X134.132 Y97.440 E14.28459
G1 X133.500 Y96.851 E14.32190
G1 X132.952 Y96.184 E14.35921
G1 X132.496 Y95.450 E14.39652
G1 X128.968 Y88.228 E14.74378
G1 X128.608 Y87.113 E14.79440
G1 X128.454 Y85.951 E14.84502
G1 X128.448 Y65.625 E15.72319
G1 X128.521 Y64.670 E15.76458
G1 X128.715 Y63.827 E15.80193
G10 ; retract
G92 E0
G1 X134.968 Y85.678 F7800.000
G11 ; unretract
G92 E0
;TYPE:Support material
;WIDTH:0.5
G1 F900.000
G1 X134.968 Y65.644 E0.76141
G1 X135.882 Y65.644 E0.79616
G1 X135.882 Y85.472 E1.54975
G1 X136.796 Y85.472 E1.58450
G1 X136.796 Y65.644 E2.33809
G1 X137.710 Y65.644 E2.37284
G1 X137.710 Y85.472 E3.12643
G1 X138.251 Y85.472 E3.14698
G1 X138.251 Y92.386 E3.40977
G1 X138.625 Y92.386 E3.42396
G1 X138.625 Y58.730 E4.70312
G1 X139.539 Y58.730 E4.73786
G1 X139.539 Y92.386 E6.01702
G1 X140.453 Y92.386 E6.05176
G1 X140.453 Y58.730 E7.33092
G1 X141.367 Y58.730 E7.36567
G1 X141.367 Y92.386 E8.64483
G1 X142.281 Y92.386 E8.67957
G1 X142.281 Y58.730 E9.95873
G1 X143.195 Y58.730 E9.99347
G1 X143.195 Y92.592 E11.28045
G10 ; retract
G92 E0
G1 X175.191 Y85.678 F7800.000
G11 ; unretract
G92 E0
G1 F900.000
G1 X175.191 Y65.644 E0.76141
G1 X174.277 Y65.644 E0.79616
G1 X174.277 Y85.472 E1.54975
G1 X173.363 Y85.472 E1.58450
G1 X173.363 Y65.644 E2.33809
G1 X172.448 Y65.644 E2.37284
G1 X172.448 Y85.472 E3.12643
G1 X171.908 Y85.472 E3.14699
G1 X171.908 Y92.386 E3.40977
G1 X171.534 Y92.386 E3.42396
G1 X171.534 Y58.730 E4.70312
G1 X170.620 Y58.730 E4.73786
G1 X170.620 Y92.386 E6.01702
G1 X169.706 Y92.386 E6.05176
G1 X169.706 Y58.730 E7.33092
G1 X168.792 Y58.730 E7.36567
G1 X168.792 Y92.386 E8.64483
G1 X167.878 Y92.386 E8.67957
G1 X167.878 Y58.730 E9.95873
G1 X166.963 Y58.730 E9.99347
G1 X166.963 Y92.386 E11.27263
G1 X166.049 Y92.386 E11.30738
G1 X166.049 Y77.707 E11.86528
G1 X165.922 Y78.274 E11.88735
G1 X165.648 Y79.198 E11.92399
G1 X165.433 Y79.772 E11.94730
G1 X165.135 Y80.435 E11.97493
G1 X165.135 Y92.386 E12.42914
G1 X164.993 Y92.386 E12.43452
G1 X164.993 Y95.843 E12.56591
G1 X164.221 Y95.843 E12.59527
G1 X164.221 Y81.989 E13.12182
G1 X163.806 Y82.543 E13.14813
G1 X163.307 Y83.122 E13.17718
G1 X163.307 Y95.843 E13.66067
G1 X162.393 Y95.843 E13.69541
G1 X162.393 Y84.011 E14.14510
G1 X161.950 Y84.376 E14.16688
G1 X161.479 Y84.724 E14.18916
G1 X161.479 Y95.843 E14.61177
G1 X160.564 Y95.843 E14.64652
G1 X160.564 Y85.298 E15.04730
G1 X159.650 Y85.759 E15.08622
G1 X159.650 Y95.843 E15.46947
G1 X158.736 Y95.843 E15.50422
G1 X158.736 Y86.120 E15.87376
G1 X157.822 Y86.392 E15.91001
G1 X157.822 Y95.843 E16.26920
G1 X156.908 Y95.843 E16.30394
G1 X156.908 Y86.584 E16.65586
G1 X155.994 Y86.699 E16.69088
G1 X155.994 Y95.843 E17.03842
G1 X155.079 Y95.843 E17.07316
G1 X155.079 Y86.735 E17.41934
G1 X154.165 Y86.696 E17.45411
G1 X154.165 Y95.843 E17.80174
G1 X153.251 Y95.843 E17.83649
G1 X153.251 Y86.585 E18.18837
G1 X152.337 Y86.394 E18.22386
G1 X152.337 Y95.843 E18.58297
G1 X151.423 Y95.843 E18.61771
G1 X151.423 Y86.119 E18.98728
G1 X150.509 Y85.756 E19.02466
G1 X150.509 Y95.843 E19.40802
G1 X149.594 Y95.843 E19.44276
G1 X149.594 Y85.295 E19.84364
G1 X149.286 Y85.118 E19.85716
G1 X148.680 Y84.721 E19.88469
G1 X148.680 Y95.843 E20.30742
G1 X147.766 Y95.843 E20.34216
G1 X147.766 Y84.009 E20.79193
G1 X147.249 Y83.535 E20.81861
G1 X146.852 Y83.125 E20.84028
G1 X146.852 Y95.843 E21.32363
G1 X145.938 Y95.843 E21.35838
G1 X145.938 Y81.988 E21.88495
G1 X145.541 Y81.388 E21.91230
G1 X145.274 Y80.926 E21.93257
G1 X145.024 Y80.440 E21.95335
G1 X145.024 Y92.386 E22.40738
G1 X144.109 Y92.386 E22.44212
G1 X144.109 Y77.695 E23.00049
G1 X143.987 Y76.940 E23.02956
G1 X143.934 Y76.409 E23.04984
G1 X143.905 Y75.848 E23.07118
G1 X143.903 Y75.342 E23.09040
G1 X143.928 Y74.787 E23.11153
G1 X143.977 Y74.258 E23.13171
G1 X144.109 Y73.421 E23.16392
G1 X144.109 Y58.730 E23.72229
G1 X145.024 Y58.730 E23.75704
G1 X145.024 Y70.676 E24.21106
G1 X145.274 Y70.190 E24.23184
G1 X145.541 Y69.728 E24.25212
G1 X145.938 Y69.127 E24.27946
G1 X145.938 Y55.272 E24.80604
G1 X146.852 Y55.272 E24.84079
G1 X146.852 Y67.990 E25.32414
G1 X147.249 Y67.581 E25.34581
G1 X147.766 Y67.106 E25.37249
G1 X147.766 Y55.272 E25.82226
G1 X148.680 Y55.272 E25.85700
G1 X148.680 Y66.395 E26.27973
G1 X149.286 Y65.998 E26.30726
G1 X149.594 Y65.820 E26.32078
G1 X149.594 Y55.272 E26.72166
G1 X150.509 Y55.272 E26.75641
G1 X150.509 Y65.359 E27.13976
G1 X151.423 Y64.996 E27.17714
G1 X151.423 Y55.272 E27.54671
G1 X152.337 Y55.272 E27.58146
G1 X152.337 Y64.721 E27.94057
G1 X153.251 Y64.531 E27.97606
G1 X153.251 Y55.272 E28.32794
G1 X154.165 Y55.272 E28.36268
G1 X154.165 Y64.419 E28.71032
G1 X155.079 Y64.381 E28.74509
G1 X155.079 Y55.272 E29.09127
G1 X155.994 Y55.272 E29.12601
G1 X155.994 Y64.417 E29.47355
G1 X156.908 Y64.532 E29.50857
G1 X156.908 Y55.272 E29.86049
G1 X157.822 Y55.272 E29.89523
G1 X157.822 Y64.723 E30.25442
G1 X158.736 Y64.996 E30.29068
G1 X158.736 Y55.272 E30.66022
G1 X159.650 Y55.272 E30.69496
G1 X159.650 Y65.357 E31.07822
G1 X160.564 Y65.818 E31.11713
G1 X160.564 Y55.272 E31.51792
G1 X161.479 Y55.272 E31.55266
G1 X161.479 Y66.392 E31.97528
G1 X161.950 Y66.740 E31.99756
G1 X162.393 Y67.104 E32.01934
G1 X162.393 Y55.272 E32.46903
G1 X163.307 Y55.272 E32.50377
G1 X163.307 Y67.994 E32.98726
G1 X163.806 Y68.572 E33.01631
G1 X164.221 Y69.127 E33.04262
G1 X164.221 Y55.272 E33.56917
G1 X164.993 Y55.272 E33.59853
G1 X164.993 Y58.730 E33.72992
G1 X165.135 Y58.730 E33.73531
G1 X165.135 Y70.680 E34.18951
G1 X165.433 Y71.344 E34.21714
G1 X165.648 Y71.918 E34.24045
G1 X165.922 Y72.842 E34.27709
G1 X166.049 Y73.409 E34.29916
G1 X166.049 Y58.524 E34.86489
G10 ; retract
G92 E0
G1 X159.450 Y74.976 F7800.000
G11 ; unretract
G92 E0
;TYPE:Perimeter
;WIDTH:0.5625
G1 F900.000
G1 X159.162 Y75.558 E0.02804
G1 X159.450 Y76.139 E0.05607
G1 X159.255 Y77.280 E0.10606
G1 X158.865 Y78.039 E0.14294
G1 X158.395 Y78.637 E0.17582
G1 X157.845 Y79.139 E0.20796
G1 X157.222 Y79.544 E0.24007
G1 X156.566 Y79.830 E0.27100
G1 X156.157 Y79.950 E0.28941
G1 X155.451 Y80.068 E0.32033
G1 X154.708 Y80.068 E0.35244
G1 X154.002 Y79.950 E0.38337
G1 X153.593 Y79.830 E0.40177
G1 X152.937 Y79.544 E0.43270
G1 X152.313 Y79.139 E0.46481
G1 X151.764 Y78.637 E0.49696
G1 X151.294 Y78.039 E0.52984
G1 X150.904 Y77.280 E0.56672
G1 X150.709 Y76.139 E0.61670
G1 X150.997 Y75.558 E0.64474
G1 X150.709 Y74.976 E0.67277
G1 X150.904 Y73.836 E0.72276
G1 X151.294 Y73.077 E0.75964
G1 X151.747 Y72.500 E0.79134
G1 X152.050 Y72.199 E0.80979
G1 X152.617 Y71.761 E0.84071
G1 X153.271 Y71.410 E0.87282
G1 X153.949 Y71.178 E0.90375
G1 X154.365 Y71.092 E0.92212
G1 X155.059 Y71.034 E0.95219
G1 X155.818 Y71.093 E0.98507
G1 X156.514 Y71.268 E1.01611
G1 X156.911 Y71.422 E1.03452
G1 X157.542 Y71.761 E1.06545
G1 X158.109 Y72.199 E1.09638
G1 X158.412 Y72.500 E1.11482
G1 X158.865 Y73.077 E1.14652
G1 X159.255 Y73.836 E1.18341
G1 X159.438 Y74.903 E1.23015
G1 X158.910 Y74.897 F7800.000
G1 F900.000
G1 X158.582 Y75.558 E1.26201
G1 X158.910 Y76.218 E1.29386
G1 X158.757 Y77.113 E1.33307
G1 X158.425 Y77.757 E1.36436
G1 X158.013 Y78.283 E1.39323
G1 X157.527 Y78.727 E1.42167
G1 X156.975 Y79.084 E1.45008
G1 X156.388 Y79.340 E1.47777
G1 X156.041 Y79.443 E1.49340
G1 X155.408 Y79.548 E1.52110
G1 X154.751 Y79.548 E1.54950
G1 X154.118 Y79.443 E1.57720
G1 X153.771 Y79.340 E1.59283
G1 X153.184 Y79.084 E1.62052
G1 X152.632 Y78.727 E1.64893
G1 X152.146 Y78.283 E1.67737
G1 X151.734 Y77.757 E1.70624
G1 X151.402 Y77.113 E1.73753
G1 X151.249 Y76.218 E1.77674
G1 X151.577 Y75.558 E1.80859
G1 X151.249 Y74.897 E1.84045
G1 X151.402 Y74.003 E1.87966
G1 X151.734 Y73.359 E1.91095
G1 X152.136 Y72.846 E1.93911
G1 X152.393 Y72.591 E1.95477
G1 X152.900 Y72.199 E1.98246
G1 X153.480 Y71.888 E2.01087
G1 X154.086 Y71.681 E2.03856
G1 X154.440 Y71.607 E2.05417
G1 X155.060 Y71.555 E2.08106
G1 X155.733 Y71.608 E2.11022
G1 X156.356 Y71.764 E2.13798
G1 X156.694 Y71.895 E2.15362
G1 X157.258 Y72.199 E2.18131
G1 X157.766 Y72.591 E2.20901
G1 X158.023 Y72.846 E2.22467
G1 X158.425 Y73.359 E2.25283
G1 X158.757 Y74.003 E2.28411
G1 X158.897 Y74.823 E2.32008
G1 X158.110 Y75.777 F7800.000
;TYPE:External perimeter
G1 F900.000
G1 X158.369 Y76.298 E2.34521
G1 X158.258 Y76.947 E2.37365
G1 X157.986 Y77.475 E2.39934
G1 X157.631 Y77.928 E2.42421
G1 X157.208 Y78.314 E2.44893
G1 X156.728 Y78.625 E2.47364
G1 X156.209 Y78.851 E2.49809
G1 X155.924 Y78.936 E2.51096
G1 X155.365 Y79.029 E2.53541
G1 X154.793 Y79.029 E2.56012
G1 X154.235 Y78.936 E2.58458
G1 X153.949 Y78.851 E2.59744
G1 X153.431 Y78.625 E2.62190
G1 X152.951 Y78.314 E2.64661
G1 X152.528 Y77.928 E2.67133
G1 X152.173 Y77.475 E2.69620
G1 X151.901 Y76.947 E2.72189
G1 X151.790 Y76.298 E2.75033
G1 X152.048 Y75.777 E2.77546
G1 X158.035 Y75.777 E3.03412
G1 X158.583 Y75.612 F7800.000
G1 X158.035 Y75.339
G1 F900.000
G1 X152.048 Y75.339 E3.29277
G1 X151.790 Y74.818 E3.31791
G1 X151.901 Y74.169 E3.34634
G1 X152.173 Y73.640 E3.37203
G1 X152.525 Y73.192 E3.39665
G1 X152.736 Y72.982 E3.40952
G1 X153.184 Y72.636 E3.43398
G1 X153.688 Y72.365 E3.45869
G1 X154.224 Y72.183 E3.48315
G1 X154.515 Y72.122 E3.49600
G1 X155.062 Y72.076 E3.51970
G1 X155.649 Y72.122 E3.54515
G1 X156.198 Y72.261 E3.56963
G1 X156.476 Y72.368 E3.58249
G1 X156.975 Y72.636 E3.60695
G1 X157.423 Y72.982 E3.63141
G1 X157.634 Y73.192 E3.64428
G1 X157.986 Y73.640 E3.66890
G1 X158.258 Y74.169 E3.69459
G1 X158.369 Y74.818 E3.72303
G1 X158.110 Y75.339 E3.74816
G1 X158.004 Y75.838 F7800.000
G1 X162.374 Y74.856
;TYPE:Perimeter
G1 F900.000
G1 X162.407 Y75.572 E3.77912
G1 X162.373 Y76.274 E3.80948
G1 X162.335 Y76.591 E3.82328
G1 X162.198 Y77.295 E3.85426
G1 X162.000 Y77.968 E3.88455
G1 X161.738 Y78.618 E3.91482
G1 X161.408 Y79.252 E3.94573
G1 X161.026 Y79.840 E3.97600
G1 X160.589 Y80.389 E4.00632
G1 X160.113 Y80.883 E4.03598
G1 X159.569 Y81.349 E4.06693
G1 X158.995 Y81.752 E4.09720
G1 X158.385 Y82.098 E4.12750
G1 X157.745 Y82.384 E4.15779
G1 X157.081 Y82.607 E4.18807
G1 X156.384 Y82.769 E4.21898
G1 X155.689 Y82.860 E4.24925
G1 X154.989 Y82.885 E4.27954
G1 X154.289 Y82.843 E4.30984
G1 X153.596 Y82.734 E4.34015
G1 X152.917 Y82.559 E4.37042
G1 X152.244 Y82.315 E4.40135
G1 X151.610 Y82.013 E4.43170
G1 X151.331 Y81.856 E4.44551
G1 X150.735 Y81.459 E4.47647
G1 X150.180 Y81.007 E4.50740
G1 X149.692 Y80.525 E4.53703
G1 X149.233 Y79.975 E4.56797
G1 X148.837 Y79.397 E4.59824
G1 X148.499 Y78.782 E4.62854
G1 X148.221 Y78.138 E4.65885
G1 X148.006 Y77.471 E4.68914
G1 X147.855 Y76.786 E4.71944
G1 X147.771 Y76.091 E4.74971
G1 X147.754 Y75.375 E4.78062
G1 X147.805 Y74.677 E4.81089
G1 X147.922 Y73.985 E4.84119
G1 X148.109 Y73.293 E4.87217
G1 X148.215 Y72.991 E4.88597
G1 X148.493 Y72.346 E4.91632
G1 X148.838 Y71.718 E4.94728
G1 X149.233 Y71.140 E4.97754
G1 X149.682 Y70.601 E5.00784
G1 X150.180 Y70.108 E5.03811
G1 X150.735 Y69.657 E5.06902
G1 X151.318 Y69.269 E5.09929
G1 X151.937 Y68.938 E5.12958
G1 X152.584 Y68.668 E5.15988
G1 X153.254 Y68.461 E5.19019
G1 X153.940 Y68.319 E5.22046
G1 X154.638 Y68.243 E5.25079
G1 X155.339 Y68.234 E5.28108
G1 X156.037 Y68.293 E5.31135
G1 X156.741 Y68.421 E5.34226
G1 X157.415 Y68.612 E5.37253
G1 X158.069 Y68.867 E5.40283
G1 X158.694 Y69.184 E5.43312
G1 X159.288 Y69.559 E5.46344
G1 X159.841 Y69.988 E5.49371
G1 X160.352 Y70.469 E5.52403
G1 X160.814 Y70.996 E5.55432
G1 X161.224 Y71.565 E5.58462
G1 X161.577 Y72.170 E5.61489
G1 X161.877 Y72.820 E5.64580
G1 X162.107 Y73.482 E5.67607
G1 X162.273 Y74.163 E5.70637
G1 X162.363 Y74.782 E5.73339
G1 X162.877 Y74.708 F7800.000
G1 F900.000
G1 X162.927 Y75.573 E5.77081
G1 X162.891 Y76.318 E5.80304
G1 X162.849 Y76.672 E5.81844
G1 X162.704 Y77.418 E5.85131
G1 X162.491 Y78.139 E5.88375
G1 X162.211 Y78.835 E5.91619
G1 X161.857 Y79.514 E5.94927
G1 X161.448 Y80.144 E5.98170
G1 X160.981 Y80.732 E6.01415
G1 X160.470 Y81.262 E6.04596
G1 X159.888 Y81.760 E6.07906
G1 X159.273 Y82.191 E6.11150
G1 X158.620 Y82.562 E6.14395
G1 X157.934 Y82.868 E6.17639
G1 X157.223 Y83.108 E6.20882
G1 X156.477 Y83.281 E6.24190
G1 X155.733 Y83.379 E6.27434
G1 X154.982 Y83.405 E6.30678
